X: 148
T: A Cup Of Tea
R: reel
M: 4/4
K: Adorian
eAAa ~g2fg|eA~A2 BGBd|eA~A2 ~g2fg|1 af (3gfe dG~G2:|2 af (3gfe d2^cd||
eaag efgf|eaag ed (3Bcd|eaag efgb|af (3gfe d2^cd:|

